X:466
T:Waves of Tory
T:London Bridge
S:Sessions etc
Z:Nigel Gatherer
M:2/4
L:1/8
K:D
A | dA  FA | d2 df | ed  cd       | ef gf/g/ |
    af  ge | dc AF | GB  A/B/A/G/ | FD D    :|
z | d>d dd | zd d2 | d>d df       | gf ef/g/ |
    af  ge | dc AF | GB  A/B/A/G/ | FD D    :|
<end>
<start>
